X:708
T:The Kinnegad Slashers
T:Land of sweet Erin
T:Bannocks of barley meal
T:The powers of whiskey
R:Jig
O:Ireland
B:O'Neill's 901
S:O'Neill's 901
Z:Transcription:Tom Keays, chords:Mike Long
M:6/8
L:1/8
K:D
(3(A/B/c/|\
"D"d)ed dAF|"A"ABA ABc|"D"ded dAF|"A"Eee e2f|\
"D"ded dAF|"A"ABA Aag|
"D"fef "G"dBA|"D"Bdd d2:|\
|:A|\
"D"dfa afd|"A"cde ecA|"D"dfa afd|"(A)"faa a2A|
"D"dfa afd|"A"cde eag|"D"fef "G"dBA|"D"Bdd d2:|\
|:A|\
"D"dAF dAF|"A"ABA ABc|
"D"dAF dAF|"A"Eee (e2f)|\
"D"dAF dAF|"A"ABA Aag|{g}"D"fef "G"dBA|"D"B<dd d2:|
